X:35
T:Temperance Reel
O:Ireland
R:Reel
M:4/4
L:1/8
K:G
(3DEF|"G"G2GF GABc|d2ge dBAc|"Em"BEED EFGA|"G"BGAF "D"GFED|!
"G"G2>F2 GABc|dBge dBAc|"Em"BEED EFGA|"G"BGAF "D"G3:|!
A|"Em"Beed e2>g2|fgaf gfed|"D"Add^c d2>e2|fgaf gfed|!
"Em""C"Beed e2>g2|fgaf gfed|"G"BEED EFGA|"D"BGAF "G" G2:|

